img/play.svg

<svg width="33" height="33" viewBox="0 0 33 33" fill="none" xmlns="http://www.w3.org/2000/svg">
<path fill-rule="evenodd" clip-rule="evenodd" d="M15.3558 0.020898C11.8701 0.275686 8.62852 1.58211 5.9252 3.82156C5.42117 4.23912 4.23847 5.42175 3.83133 5.91536C2.03275 8.09585 0.864763 10.5385 0.319168 13.2605C-0.552525 17.6093 0.380602 22.1814 2.88221 25.8189C3.8155 27.1759 4.99864 28.4386 6.31253 29.4797C8.60316 31.2948 11.4742 32.498 14.3959 32.8672C19.409 33.5007 24.3864 31.8463 27.9634 28.3576C29.912 26.4571 31.2702 24.3183 32.1287 21.7989C33.919 16.5446 32.9087 10.6319 29.4809 6.30283C28.8463 5.50144 27.8746 4.49084 27.1609 3.88993C24.5929 1.7277 21.553 0.43364 18.185 0.0690119C17.5992 0.00556757 15.9492 -0.0224652 15.3558 0.020898ZM17.6966 2.7146C21.4908 3.0602 24.9026 4.88465 27.2775 7.83793C28.8968 9.85164 29.8551 12.1166 30.2276 14.8104C30.3002 15.3354 30.3308 17.0024 30.2794 17.6238C29.7222 24.3455 24.4006 29.6956 17.6966 30.2737C17.1828 30.318 15.8275 30.3189 15.3221 30.2752C10.4569 29.8548 6.18007 26.9073 4.05376 22.5093C3.32188 20.9955 2.88073 19.3951 2.72563 17.6911C2.68215 17.2132 2.68215 15.7769 2.72563 15.2989C3.22848 9.77408 6.88676 5.13405 12.1256 3.37637C13.1648 3.02768 14.1366 2.8293 15.4232 2.70315C15.7049 2.67552 17.3591 2.68388 17.6966 2.7146ZM13.0753 8.96264C12.7612 9.03431 12.37 9.25301 12.1278 9.49234C11.8747 9.74234 11.6692 10.1341 11.6181 10.4639C11.5715 10.7642 11.5715 22.2259 11.6181 22.5261C11.6382 22.6561 11.7068 22.8573 11.7868 23.021C12.2413 23.9514 13.4399 24.3426 14.3573 23.8599C14.4711 23.7999 16.5492 22.4405 18.9752 20.8389C21.9058 18.9042 23.4442 17.869 23.5594 17.7542C23.6547 17.6591 23.7806 17.4977 23.8391 17.3954C23.9684 17.1692 24.0792 16.7541 24.0792 16.495C24.0792 16.236 23.9684 15.8208 23.8391 15.5947C23.7806 15.4924 23.6547 15.3309 23.5594 15.2359C23.4442 15.121 21.8976 14.0804 18.9459 12.1318C16.5038 10.5195 14.4518 9.17218 14.3859 9.13761C14.0119 8.94145 13.4795 8.87036 13.0753 8.96264Z" fill="white"/>
</svg>

<svg width="33" height="33" fill="none" xmlns="http://www.w3.org/2000/svg"><path fill-rule="evenodd" clip-rule="evenodd" d="M15.356.02a16.554 16.554 0 0 0-9.43 3.802c-.505.417-1.688 1.6-2.095 2.093C2.033 8.095.865 10.54.32 13.261c-.872 4.348.062 8.92 2.563 12.558a17.084 17.084 0 0 0 3.43 3.66 16.528 16.528 0 0 0 8.084 3.388c5.013.634 9.99-1.02 13.567-4.51 1.949-1.9 3.307-4.039 4.166-6.558 1.79-5.254.78-11.167-2.648-15.496-.635-.802-1.606-1.812-2.32-2.413C24.593 1.728 21.553.434 18.185.069c-.586-.063-2.236-.091-2.83-.048Zm2.34 2.695c3.795.345 7.207 2.17 9.581 5.123 1.62 2.014 2.578 4.279 2.95 6.972.073.525.104 2.192.052 2.814-.557 6.722-5.878 12.072-12.582 12.65-.514.044-1.87.045-2.375.001A13.832 13.832 0 0 1 4.054 22.51a13.84 13.84 0 0 1-1.328-4.818c-.044-.478-.044-1.914 0-2.392.502-5.525 4.16-10.165 9.4-11.923 1.039-.348 2.01-.547 3.297-.673.282-.027 1.936-.02 2.274.012Zm-4.62 6.248c-.315.071-.706.29-.948.53-.253.25-.459.641-.51.97-.046.301-.046 11.763 0 12.063.02.13.089.331.169.495.454.93 1.653 1.322 2.57.839.114-.06 2.192-1.42 4.618-3.021 2.93-1.935 4.47-2.97 4.584-3.085.096-.095.222-.256.28-.359.13-.226.24-.64.24-.9 0-.259-.11-.674-.24-.9a2.063 2.063 0 0 0-.28-.36c-.115-.114-1.661-1.155-4.613-3.103a574.884 574.884 0 0 0-4.56-2.994 2.065 2.065 0 0 0-1.31-.175Z" fill="#fff"/></svg>
